X: 28
T:King of the Fairies
% Nottingham Music Database
S:Kevin Briggs
P:AAB
M:4/4
L:1/8
R:Hornpipe
K:Em
B2|"Em"E2EF G2GA|"Em"B2B2 GFGA|"Em"B2E2 EFGE|"D"FGAF D2B,2|
"Em"EDE"d"F "C"GFGA|"G"BAGB d2dc|"Em"B2E2 "D"GFED|"Em"E4 E2:|:
B2|"Em"efed B2B2|"Em"efed B2g2|"D"fgaf d2g2|"D"fgaf d2ga|
"G"b2gb "D/f+"a2fa|"Em"g2eg "D"f2df|"C"e2ef "B7"gfed|"C"e2ef "B7"g2g2|
"Em"efed B2B2|"Em"efed B2B2|"G"dcBA "Am"cBAG|"D7"FGAF D2EF|
"G"GFGA BABd|"C"edef g2e2|"G"dcBA "B7"BAGF|"Em"E4 E2||


